src/assets/duotone/Direct.svg

<svg width="24" height="24" viewBox="0 0 24 24"  xmlns="http://www.w3.org/2000/svg">
<path opacity="0.4" d="M16.19 2H7.81C4.17 2 2 4.17 2 7.81V16.18C2 19.83 4.17 22 7.81 22H16.18C19.82 22 21.99 19.83 21.99 16.19V7.81C22 4.17 19.83 2 16.19 2Z" />
<path d="M21.3 12.23H17.82C16.84 12.23 15.97 12.77 15.53 13.65L14.69 15.31C14.49 15.71 14.09 15.96 13.65 15.96H10.37C10.06 15.96 9.62 15.89 9.33 15.31L8.49 13.66C8.05 12.79 7.17 12.24 6.2 12.24H2.7C2.31 12.24 2 12.55 2 12.94V16.2C2 19.83 4.18 22 7.82 22H16.2C19.63 22 21.74 20.12 22 16.78V12.93C22 12.55 21.69 12.23 21.3 12.23Z" />
<path d="M13.55 7.7999H10.45C10.06 7.7999 9.75 7.4899 9.75 7.0999C9.75 6.7099 10.06 6.3999 10.45 6.3999H13.55C13.94 6.3999 14.25 6.7099 14.25 7.0999C14.25 7.4899 13.93 7.7999 13.55 7.7999Z" />
<path d="M14.3302 10.5899H9.67021C9.28021 10.5899 8.97021 10.2799 8.97021 9.88994C8.97021 9.49994 9.28021 9.18994 9.67021 9.18994H14.3202C14.7102 9.18994 15.0202 9.49994 15.0202 9.88994C15.0202 10.2799 14.7102 10.5899 14.3302 10.5899Z" />
</svg>

<?xml version="1.0" encoding="UTF-8"?>
<svg width="24" height="24" viewBox="0 0 24 24" xmlns="http://www.w3.org/2000/svg">
 <path d="M16.19 2H7.81C4.17 2 2 4.17 2 7.81V16.18C2 19.83 4.17 22 7.81 22H16.18C19.82 22 21.99 19.83 21.99 16.19V7.81C22 4.17 19.83 2 16.19 2Z" opacity=".4"/>
 <path d="m21.3 12.23h-3.48c-0.98 0-1.85 0.54-2.29 1.42l-0.84 1.66c-0.2 0.4-0.6 0.65-1.04 0.65h-3.28c-0.31 0-0.75-0.07-1.04-0.65l-0.84-1.65c-0.44-0.87-1.32-1.42-2.29-1.42h-3.5c-0.39 0-0.7 0.31-0.7 0.7v3.26c0 3.63 2.18 5.8 5.82 5.8h8.38c3.43 0 5.54-1.88 5.8-5.22v-3.85c0-0.38-0.31-0.7-0.7-0.7z"/>
 <path d="m13.55 7.7999h-3.1c-0.39 0-0.7-0.31-0.7-0.7s0.31-0.7 0.7-0.7h3.1c0.39 0 0.7 0.31 0.7 0.7s-0.32 0.7-0.7 0.7z"/>
 <path d="m14.33 10.59h-4.66c-0.39 0-0.7-0.31-0.7-0.69996 0-0.39 0.31-0.7 0.7-0.7h4.65c0.39 0 0.7 0.31 0.7 0.7 0 0.38996-0.31 0.69996-0.69 0.69996z"/>
</svg>
